src/assets/images/service.svg

<svg fill="none" height="47" viewBox="0 0 34 47" width="34" xmlns="http://www.w3.org/2000/svg"><path d="m29.9197 15.1202c-.2602.2392-.6009.3745-.9561.3795-.3552.0051-.6997-.1203-.9669-.352-2.5865-2.16-5.8611-3.3464-9.2459-3.35-2.7846 0-5.5718.9075-5.5718 3.435 0 2.5575 2.9868 3.41 6.4335 4.6875 6.0292 1.99 11.0249 4.4899 11.0249 10.3424 0 6.3625-4.9957 10.7374-13.15 11.2199l-.7454 3.41c-.0663.3134-.2396.5946-.4909.7963-.2513.2018-.5652.3116-.8888.3112h-5.1397l-.25778-.0275c-.36781-.0815-.68847-.3028-.89272-.6162s-.27569-.6937-.1989-1.0588l.80355-3.61c-3.09504-.7674-5.94141-2.3023-8.27053-4.4599v-.0275c-.12874-.1267-.2309-.2772-.30062-.443-.06971-.1659-.1056-.3437-.1056-.5233s.03589-.3574.1056-.5232c.06972-.1658.17188-.3164.30062-.443l2.87308-2.755c.54075-.5 1.38221-.5 1.92297 0 2.62751 2.4558 6.11943 3.801 9.73363 3.75 3.7347 0 6.2313-1.5625 6.2313-4.035s-2.5269-3.125-7.2926-4.885c-5.05382-1.79-9.84987-4.3199-9.84987-10.2274 0-6.87494 5.77147-10.22742 12.60667-10.53991l.7177-3.49498c.0664-.31054.2404-.58838.4918-.78556s.5646-.301312.8853-.29443h5.1119l.2881.03c.1773.03683.3454.10795.4948.20928s.2771.23088.3757.38119.1663.31842.199.49467.03.35717-.0082.53235l-.7758 3.89247c2.6063.85575 5.0233 2.19646 7.1208 3.95002l.0581.055c.5459.5699.5459 1.4224 0 1.9324z" stroke="#000" stroke-linecap="round" stroke-linejoin="round" stroke-width="2"/></svg>

<svg width="34" height="47" viewBox="0 0 34 47" fill="none" xmlns="http://www.w3.org/2000/svg">
<path d="M29.9197 15.1202C29.6595 15.3594 29.3188 15.4947 28.9636 15.4997C28.6084 15.5048 28.2639 15.3794 27.9967 15.1477C25.4102 12.9877 22.1356 11.8013 18.7508 11.7977C15.9662 11.7977 13.179 12.7052 13.179 15.2327C13.179 17.7902 16.1658 18.6427 19.6125 19.9202C25.6417 21.9102 30.6374 24.4101 30.6374 30.2626C30.6374 36.6251 25.6417 41 17.4874 41.4825L16.742 44.8925C16.6757 45.2059 16.5024 45.4871 16.2511 45.6888C15.9998 45.8906 15.6859 46.0004 15.3623 46H10.2226L9.96482 45.9725C9.59701 45.891 9.27635 45.6697 9.0721 45.3563C8.86785 45.0429 8.79641 44.6626 8.8732 44.2975L9.67675 40.6875C6.58171 39.9201 3.73534 38.3852 1.40622 36.2276V36.2001C1.27748 36.0734 1.17532 35.9229 1.1056 35.7571C1.03589 35.5912 1 35.4134 1 35.2338C1 35.0542 1.03589 34.8764 1.1056 34.7106C1.17532 34.5448 1.27748 34.3942 1.40622 34.2676L4.2793 31.5126C4.82005 31.0126 5.66151 31.0126 6.20227 31.5126C8.82978 33.9684 12.3217 35.3136 15.9359 35.2626C19.6706 35.2626 22.1672 33.7001 22.1672 31.2276C22.1672 28.7551 19.6403 28.1026 14.8746 26.3426C9.82078 24.5526 5.02473 22.0227 5.02473 16.1152C5.02473 9.24026 10.7962 5.88778 17.6314 5.57529L18.3491 2.08031C18.4155 1.76977 18.5895 1.49193 18.8409 1.29475C19.0923 1.09757 19.4055 0.993438 19.7262 1.00032H24.8381L25.1262 1.03032C25.3035 1.06715 25.4716 1.13827 25.621 1.2396C25.7704 1.34093 25.8981 1.47048 25.9967 1.62079C26.0953 1.7711 26.163 1.93921 26.1957 2.11546C26.2284 2.29171 26.2257 2.47263 26.1875 2.64781L25.4117 6.54028C28.018 7.39603 30.435 8.73674 32.5325 10.4903L32.5906 10.5453C33.1365 11.1152 33.1365 11.9677 32.5906 12.4777L29.9197 15.1202Z" stroke="black" stroke-width="2" stroke-linecap="round" stroke-linejoin="round"/>
</svg>
